src/icons/chat.svg

<?xml version="1.0" encoding="UTF-8"?>
<svg width="21px" height="19px" viewBox="0 0 21 19" version="1.1" xmlns="http://www.w3.org/2000/svg" xmlns:xlink="http://www.w3.org/1999/xlink">
    <!-- Generator: Sketch 48.1 (47250) - http://www.bohemiancoding.com/sketch -->
    <title>chat</title>
    <desc>Created with Sketch.</desc>
    <defs></defs>
    <g id="Support" stroke="none" stroke-width="1" fill="none" fill-rule="evenodd" transform="translate(-994.000000, -157.000000)">
        <g transform="translate(974.000000, 47.000000)" fill="#5EABDD" id="chat">
            <g transform="translate(20.000000, 110.000000)">
                <g id="Shape">
                    <path d="M18.9252,0.181517857 L6.9755,0.157767857 C5.831,0.157767857 4.9,1.06026786 4.9,2.16973214 L4.9,3.90823214 L2.0755,3.914 C0.931,3.914 0,4.8165 0,5.92596429 L0,13.0988036 C0,14.2082679 0.931,15.1107679 2.07515,15.1107679 L4.2,15.1107679 L4.2,18.503625 C4.2,18.64375 4.2889,18.769625 4.42365,18.8201786 C4.46495,18.8357857 4.50765,18.8429107 4.55,18.8429107 C4.6466,18.8429107 4.74145,18.8042321 4.809,18.7319643 L8.2054,15.1100893 L14.0245,15.0870179 C15.169,15.0870179 16.1,14.1845179 16.1,13.0750536 L16.1,13.0367143 L17.941,14.9998214 C18.00855,15.0720893 18.1034,15.1107679 18.2,15.1107679 C18.24235,15.1107679 18.28505,15.1036429 18.326,15.0880357 C18.4611,15.0378214 18.55,14.9116071 18.55,14.7714821 L18.55,11.378625 L18.9245,11.378625 C20.069,11.378625 21,10.476125 21,9.36666071 L21,2.19348214 C21,1.08401786 20.06935,0.181857143 18.9252,0.181517857 Z M15.4,13.074375 C15.4,13.8096071 14.78295,14.4077679 14.0231,14.4077679 L8.0486,14.4315179 C7.95025,14.4318571 7.85715,14.4722321 7.791,14.5424643 L4.9,17.6252143 L4.9,14.7708036 C4.9,14.5831786 4.7432,14.4315179 4.55,14.4315179 L2.07515,14.4315179 C1.31705,14.4315179 0.7,13.8333571 0.7,13.098125 L0.7,5.925625 C0.7,5.19039286 1.31705,4.59223214 2.0762,4.59223214 L5.25,4.58578571 C5.25,4.58578571 5.25,4.58578571 5.25,4.58578571 C5.25,4.58578571 5.2507,4.58578571 5.2507,4.58578571 L13.9552,4.56848214 L14.0245,4.56848214 C14.78295,4.56848214 15.4,5.16664286 15.4,5.901875 L15.4,12.1583036 L15.4,13.074375 Z M20.3,9.36598214 C20.3,10.1012143 19.68295,10.699375 18.9245,10.699375 L18.2,10.699375 C18.00645,10.699375 17.85,10.8510357 17.85,11.0386607 L17.85,13.8930714 L16.1,12.027 L16.1,5.901875 L16.1,5.90153571 C16.1,4.79207143 15.169,3.88991071 14.02415,3.88991071 L13.98775,3.88991071 L5.6,3.90653571 L5.6,2.16939286 C5.6,1.43416071 6.21705,0.836 6.9748,0.836 L18.92415,0.85975 C18.9245,0.85975 18.9245,0.85975 18.92485,0.85975 C19.6833,0.85975 20.30035,1.45791071 20.30035,2.19314286 L20.30035,9.36598214 L20.3,9.36598214 Z" fill-rule="nonzero"></path>
                    <path d="M4.2,8.29519643 C3.4279,8.29519643 2.8,8.903875 2.8,9.65233929 C2.8,10.4008036 3.4279,11.0094821 4.2,11.0094821 C4.9721,11.0094821 5.6,10.4008036 5.6,9.65233929 C5.6,8.903875 4.9721,8.29519643 4.2,8.29519643 Z M4.2,10.3309107 C3.81395,10.3309107 3.5,10.0265714 3.5,9.65233929 C3.5,9.27810714 3.81395,8.97376786 4.2,8.97376786 C4.58605,8.97376786 4.9,9.27810714 4.9,9.65233929 C4.9,10.0265714 4.58605,10.3309107 4.2,10.3309107 Z" fill-rule="nonzero"></path>
                    <path d="M8.05,8.29519643 C7.2779,8.29519643 6.65,8.903875 6.65,9.65233929 C6.65,10.4008036 7.2779,11.0094821 8.05,11.0094821 C8.8221,11.0094821 9.45,10.4008036 9.45,9.65233929 C9.45,8.903875 8.8221,8.29519643 8.05,8.29519643 Z M8.05,10.3309107 C7.66395,10.3309107 7.35,10.0265714 7.35,9.65233929 C7.35,9.27810714 7.66395,8.97376786 8.05,8.97376786 C8.43605,8.97376786 8.75,9.27810714 8.75,9.65233929 C8.75,10.0265714 8.43605,10.3309107 8.05,10.3309107 Z" fill-rule="nonzero"></path>
                    <path d="M11.9,8.29519643 C11.1279,8.29519643 10.5,8.903875 10.5,9.65233929 C10.5,10.4008036 11.1279,11.0094821 11.9,11.0094821 C12.6721,11.0094821 13.3,10.4008036 13.3,9.65233929 C13.3,8.903875 12.6721,8.29519643 11.9,8.29519643 Z M11.9,10.3309107 C11.51395,10.3309107 11.2,10.0265714 11.2,9.65233929 C11.2,9.27810714 11.51395,8.97376786 11.9,8.97376786 C12.28605,8.97376786 12.6,9.27810714 12.6,9.65233929 C12.6,10.0265714 12.28605,10.3309107 11.9,10.3309107 Z" fill-rule="nonzero"></path>
                </g>
            </g>
        </g>
    </g>
</svg>

<?xml version="1.0" encoding="utf-8"?>
<!-- Generator: Adobe Illustrator 21.1.0, SVG Export Plug-In . SVG Version: 6.00 Build 0)  -->
<svg version="1.1" id="Слой_1" xmlns="http://www.w3.org/2000/svg" xmlns:xlink="http://www.w3.org/1999/xlink" x="0px" y="0px"
	 viewBox="0 0 21 19" enable-background="new 0 0 21 19" xml:space="preserve">
<title>chat</title>
<desc>Created with Sketch.</desc>
<g id="Support" transform="translate(-994.000000, -157.000000)">
	<g id="chat" transform="translate(974.000000, 47.000000)">
		<g transform="translate(20.000000, 110.000000)">
			<g id="Shape">
				<path fill="#5EABDD" d="M18.9,0.2L7,0.2c-1.1,0-2.1,0.9-2.1,2v1.7l-2.8,0C0.9,3.9,0,4.8,0,5.9v7.2c0,1.1,0.9,2,2.1,2h2.1v3.4
					c0,0.1,0.1,0.3,0.2,0.3c0,0,0.1,0,0.1,0c0.1,0,0.2,0,0.3-0.1l3.4-3.6l5.8,0c1.1,0,2.1-0.9,2.1-2v0l1.8,2
					c0.1,0.1,0.2,0.1,0.3,0.1c0,0,0.1,0,0.1,0c0.1-0.1,0.2-0.2,0.2-0.3v-3.4h0.4c1.1,0,2.1-0.9,2.1-2V2.2C21,1.1,20.1,0.2,18.9,0.2z
					 M15.4,13.1c0,0.7-0.6,1.3-1.4,1.3l-6,0c-0.1,0-0.2,0-0.3,0.1l-2.9,3.1v-2.9c0-0.2-0.2-0.3-0.3-0.3H2.1c-0.8,0-1.4-0.6-1.4-1.3
					V5.9c0-0.7,0.6-1.3,1.4-1.3l3.2,0l0,0h0l8.7,0H14c0.8,0,1.4,0.6,1.4,1.3v6.3V13.1z M20.3,9.4c0,0.7-0.6,1.3-1.4,1.3h-0.7
					c-0.2,0-0.4,0.2-0.4,0.3v2.9L16.1,12V5.9v0c0-1.1-0.9-2-2.1-2h0l-8.4,0V2.2c0-0.7,0.6-1.3,1.4-1.3l11.9,0c0,0,0,0,0,0
					c0.8,0,1.4,0.6,1.4,1.3L20.3,9.4L20.3,9.4z"/>
				<path fill="#5EABDD" d="M4.2,8.3c-0.8,0-1.4,0.6-1.4,1.4c0,0.7,0.6,1.4,1.4,1.4s1.4-0.6,1.4-1.4C5.6,8.9,5,8.3,4.2,8.3z
					 M4.2,10.3c-0.4,0-0.7-0.3-0.7-0.7S3.8,9,4.2,9c0.4,0,0.7,0.3,0.7,0.7S4.6,10.3,4.2,10.3z"/>
				<path fill="#5EABDD" d="M8.1,8.3c-0.8,0-1.4,0.6-1.4,1.4c0,0.7,0.6,1.4,1.4,1.4s1.4-0.6,1.4-1.4C9.4,8.9,8.8,8.3,8.1,8.3z
					 M8.1,10.3c-0.4,0-0.7-0.3-0.7-0.7S7.7,9,8.1,9s0.7,0.3,0.7,0.7S8.4,10.3,8.1,10.3z"/>
				<path fill="#5EABDD" d="M11.9,8.3c-0.8,0-1.4,0.6-1.4,1.4c0,0.7,0.6,1.4,1.4,1.4c0.8,0,1.4-0.6,1.4-1.4
					C13.3,8.9,12.7,8.3,11.9,8.3z M11.9,10.3c-0.4,0-0.7-0.3-0.7-0.7S11.5,9,11.9,9c0.4,0,0.7,0.3,0.7,0.7S12.3,10.3,11.9,10.3z"/>
			</g>
		</g>
	</g>
</g>
</svg>
